X:1
T:Title
%%score { 1 | 2 }
L:1/8
M:4/4
K:F
V:1 treble nm="Grand Piano"
V:2 bass 
V:1
 z4 z2[Q:1/4=106] FG | A2 [Ac]2 AGFE | D2 [DB]2 [DB]2 [Fd][Fd] | dccA c2 A2 | [FA]4 [EG]2 FG | %5
 A2 [Ac]2 AGFE | D2 [DB]2 [DB]2 [Fd][Fd] | dccA c2 A2 |[M:9/8] [EG]3- [EG] F2- F z z | %9
[M:4/4] [EG][EG][EG][FA] [GB]2 [Ec]2 | A4 c4 | dcBd f2 d2 | c4 A2 A[GB] | [Ac]2 d2 cAGF | %14
[M:9/8] B2 d- d d2- ddd |[M:4/4] dccA [CAc]2 [CFA]2 |[M:3/4] [B,EG]4 [A,F]2 |] %17
V:2
 z4 z2 [F,A,][F,B,E] | [F,CF]2 [F,C]2 [F,CF][F,B,C][F,A,C][F,A,C] | %2
 [B,,F,B,]2 [B,,F,]2 [B,,F,]2 [B,,B,][B,,B,] | [F,B,F][F,A,F][F,A,F][F,CF] [F,A,F]2 [F,CF]2 | %4
 [C,C]4 [C,C]2 [F,A,][F,B,E] | [F,CF]2 [F,C]2 [F,CF][F,B,C][F,A,C][F,A,C] | %6
 [B,,F,B,]2 [B,,F,]2 [B,,F,]2 [B,,B,][B,,B,] | [F,B,F][F,A,F][F,A,F][F,CF] [F,A,F]2 [F,CF]2 | %8
[M:9/8] [C,B,]3- [C,B,] [F,A,]2- [F,A,] z z |[M:4/4] [C,C][C,C][C,C][C,C] [C,C]2 [C,C]2 | %10
 [F,CF]4 [F,A,F]4 | [B,F][B,E][B,D][B,F] [B,DF]2 [B,F]2 | [F,A,F]4 [F,CF]2 [F,CF][F,C] | %13
 [F,C]2[K:treble] [F,B,F]2 [F,A,F][F,CF][G,CE][A,C] | %14
[M:9/8] [B,DF]2 [B,F]- [B,F] [B,F]2- [B,F][B,F][B,F] | %15
[M:4/4][K:bass] [F,B,F][F,A,F][F,A,F][F,CF] F,2 F,2 |[M:3/4] C,4 F,2 |] %17

